X: 147
T: Kyrie In festo pasche
N: Derived from Rue1032-Kyrie_In_festo_pasche.krn
C: Pierre de la Rue
%%abc-version 2.0
%%abcx-abcm2ps-target-version 5.9.1 (29 Sep 2008)
%%abc-creator hum2abc beta
%%abcx-conversion-date 2019/02/17 08:01:15
%%abc-edited-by Jesse Rodin
%%abc-edited-by Jesse Rodin; Victoria Chang 2012/01/29
%%abcx-initial-encoding-date 2012/01/29/
%%humdrum-veritas 3226380093
%%humdrum-veritas-data 2276213859
%%linebreak <none>
%%barnumbers 0
L: 1/4
M: 3/1
Q: 1/2=120
%%staves [1 2 3 4]
V: 1 clef=treble
V: 2 clef=treble-8
V: 3 clef=treble-8
V: 4 clef=bass
K: C
[V:1] z12 | 
[V:2] G3AB2c3BG2 | 
[V:3] G12 | 
[V:4] z4z2C,3D,E,2 | 
[V:1] z4z4z2G2- | 
[V:2] d2f3ec2f2e2 | 
[V:3] A8c4 | 
[V:4] F,4z2F,3E,C,2 | 
[V:1] GAB2c3BG2d2- | 
[V:2] d4c4z2g2 | 
[V:3] B4A2c3BG2 | 
[V:4] G,4z4z4 | 
[V:1] dcA4B4A2- | 
[V:2] fef4d2g2f2 | 
[V:3] d12 | 
[V:4] D,3E,F,2G,3F,D,2 | 
[V:1] A2^G^FG4G3A | 
[V:2] e8e4 | 
[V:3] c4B8 | 
[V:4] A,4E,4E,4 | 
[V:1] A12 | 
[V:2] z2f2ece2d2c2 | 
[V:3] A8z4 | 
[V:4] z4z4z2C,2 | 
[V:1] z12 | 
[V:2] d4c2B2A4 | 
[V:3] z4z4z2c2 | 
[V:4] B,,G,,B,,2A,,2G,,4^F,,2 | 
[V:1] z4z4z2c2 | 
[V:2] G2D2d4c2A2 | 
[V:3] BGB2A2G4^F2 | 
[V:4] G,,2D,3C,B,,2A,,4 | 
[V:1] BGB2A2G4^F2 | 
[V:2] B2G2d8 | 
[V:3] G2d3cB2A4 | 
[V:4] G,,4z4D,4 | 
[V:1] G4z2G3AB2 | 
[V:2] c2B2c2e3dB2 | 
[V:3] z2G3AB2c2G2- | 
[V:4] E,12- | 
[V:1] c2G2z2c3BAG | 
[V:2] e4c4f4- | 
[V:3] G2c3BAGA2d2- | 
[V:4] E,4F,8 | 
[V:1] A2d3cB2A2G2- | 
[V:2] f4d8 | 
[V:3] dcA2B2G2A2B2 | 
[V:4] F,4G,4F,2G,2 | 
[V:1] G2G2F2G2A2G2 | 
[V:2] z2e2d2e2f2e2 | 
[V:3] G4z2G2F2G2 | 
[V:4] E,4z2E,2D,2E,2 | 
[V:1] z2G2F2G2A2B2 | 
[V:2] d2e2f2e2z2e2 | 
[V:3] A2G2z2G2F2G2- | 
[V:4] F,2E,2D,2E,2F,2E,2 | 
[V:1] G4z2G2A2B2- | 
[V:2] d2e2A2e2z2e2- | 
[V:3] GABcd2G2z2G2- | 
[V:4] z2E,2D,2E,2F,2G,2 | 
[V:1] B2G2A2B2E3F | 
[V:2] ede2A2G2A2G2 | 
[V:3] GA/B/c4B2c4- | 
[V:4] E,4F,2G,2C,4 | 
[V:1] GAG4E4D2 | 
[V:2] E4G4A2BA | 
[V:3] c4c4z4 | 
[V:4] z2C,3D,E,2F,2G,2 | 
[V:1] E2G3AB2c2d2 | 
[V:2] GFE4G2F4 | 
[V:3] c4B4A4 | 
[V:4] C,D,E,F,G,2E,4D,2 | 
[V:1] G12- | 
[V:2] E4e8 | 
[V:3] c3BB8 | 
[V:4] E,12- | 
[V:1] G12 ||  
[V:2] e12 ||  
[V:3] B12 ||  
[V:4] E,12 ||  
[V:1]  [K:C] [K:clef=treble][M:4/2]z8 | 
[V:2]  [K:C] [K:clef=treble-8][M:4/2]z8 | 
[V:3]  [K:C] [K:clef=treble-8][M:4/2]c4d3c | 
[V:4]  [K:C] [K:clef=bass][M:4/2]z8 | 
[V:1] z8 | 
[V:2] z8 | 
[V:3] A2c2B4 | 
[V:4] F,4G,3F, | 
[V:1] z8 | 
[V:2] f4g4 | 
[V:3] A2d4^c2 | 
[V:4] D,2F,2E,4 | 
[V:1] z8 | 
[V:2] f2d4f2 | 
[V:3] d4A4- | 
[V:4] D,8 | 
[V:1] c4d3c | 
[V:2] e4d4 | 
[V:3] A4B4 | 
[V:4] A,,4z4 | 
[V:1] A2c2B4 | 
[V:2] e8 | 
[V:3] c2A4^G2 | 
[V:4] z4E,4 | 
[V:1] A4z2c2- | 
[V:2] c6BA | 
[V:3] A8 | 
[V:4] F,8- | 
[V:1] cAA4c2 | 
[V:2] A8 | 
[V:3] z2c4AB | 
[V:4] F,8 | 
[V:1] A2c2B2G2 | 
[V:2] z2f2d2g2- | 
[V:3] c2A2z2c2 | 
[V:4] F,4G,4- | 
[V:1] d6c2 | 
[V:2] g2g2g4 | 
[V:3] B2G2d4 | 
[V:4] G,8- | 
[V:1] B4A2G2 | 
[V:2] z2G2A2c2- | 
[V:3] G4z4 | 
[V:4] G,4F,2E,2 | 
[V:1] A4z2G2- | 
[V:2] c2BAe4- | 
[V:3] d4c2B2 | 
[V:4] F,4E,4- | 
[V:1] G2E2G3A | 
[V:2] e4e4 | 
[V:3] c4B4- | 
[V:4] E,4E,4 | 
[V:1] B2G2A2G2 | 
[V:2] d2e2d2e2 | 
[V:3] B4z4 | 
[V:4] G,4F,2E,2 | 
[V:1] A2F2G2B2- | 
[V:2] A4e4- | 
[V:3] d4c2B2 | 
[V:4] F,4E,4- | 
[V:1] B2A4^G2 | 
[V:2] e4z2E2 | 
[V:3] c4B4 | 
[V:4] E,4E,4 | 
[V:1] A4z4 | 
[V:2] F2A3GE2 | 
[V:3] A4z4 | 
[V:4] z4z2E,2- | 
[V:1] z8 | 
[V:2] F4E2G2 | 
[V:3] A3Bc2B2- | 
[V:4] E,2D,2E,4 | 
[V:1] z8 | 
[V:2] F2G2E4 | 
[V:3] B2B2c2B2- | 
[V:4] D,2E,4E,2 | 
[V:1] z8 | 
[V:2] z8 | 
[V:3] B2B2c2d2 | 
[V:4] D,2E,4D,2 | 
[V:1] z8 | 
[V:2] z8 | 
[V:3] B2c4A2- | 
[V:4] E,2C,2E,2F,2- | 
[V:1] z4A3B | 
[V:2] z8 | 
[V:3] A2G2F4 | 
[V:4] F,2E,4D,2 | 
[V:1] c2B4B2 | 
[V:2] z4e4- | 
[V:3] E4z4 | 
[V:4] E,8 | 
[V:1] c2B4B2 | 
[V:2] e4d2e2- | 
[V:3] z8 | 
[V:4] z8 | 
[V:1] c2d2G2A2- | 
[V:2] e2d2e2f2- | 
[V:3] z8 | 
[V:4] z8 | 
[V:1] A2G2F2ED | 
[V:2] f2e4d2 | 
[V:3] z8 | 
[V:4] z8 | 
[V:1] C8 | 
[V:2] e8 | 
[V:3] z4A4- | 
[V:4] A,,8 | 
[V:1] z2E3DE2 | 
[V:2] c8 | 
[V:3] A4G2A2- | 
[V:4] A,,4C,4 | 
[V:1] F2G2C2D2 | 
[V:2] z8 | 
[V:3] A2G2A2B2- | 
[V:4] D,2E,2F,2D,2- | 
[V:1] F2E2D3C | 
[V:2] z8 | 
[V:3] BAA4^G2 | 
[V:4] D,2C,2B,,4 | 
[V:1] C4z2E2- | 
[V:2] z4z2c2- | 
[V:3] A4G4- | 
[V:4] A,,4C,4- | 
[V:1] EFG2F2A2- | 
[V:2] cde2d2f2- | 
[V:3] G3AB2A2- | 
[V:4] C,4D,4- | 
[V:1] A2G3AB2 | 
[V:2] f2e3fg2 | 
[V:3] ABc2B3c | 
[V:4] D,2E,6 | 
[V:1] A2c4B2- | 
[V:2] f2a4g2- | 
[V:3] d2c3de2 | 
[V:4] F,6G,2- | 
[V:1] Bcd2G2A2- | 
[V:2] g2g3cf2- | 
[V:3] d2G4c2- | 
[V:4] G,4E,2F,2- | 
[V:1] A2G4^F2 | 
[V:2] fedcd4- | 
[V:3] cBG2A4 | 
[V:4] F,2G,2D,4 | 
[V:1] G8 ||  
[V:2] d8 ||  
[V:3] G8 ||  
[V:4] G,,8 ||  
[V:1]  [K:C] [K:clef=treble][M:2/1]z8 | 
[V:2]  [K:C] [K:clef=treble-8][M:2/1]d4e4 | 
[V:3]  [K:C] [K:clef=treble-8][M:2/1]G8- | 
[V:4]  [K:C] [K:clef=bass][M:2/1]z8 | 
[V:1] z8 | 
[V:2] d2d4cB | 
[V:3] G4B4 | 
[V:4] z4G,4 | 
[V:1] z8 | 
[V:2] A4B4 | 
[V:3] c4d4- | 
[V:4] A,4G,2G,2- | 
[V:1] z8 | 
[V:2] G3AB4 | 
[V:3] d4d4 | 
[V:4] G,2F,E,D,4 | 
[V:1] G8 | 
[V:2] c4B4 | 
[V:3] e4d2d2- | 
[V:4] C,4z4 | 
[V:1] B4c4 | 
[V:2] G4z4 | 
[V:3] d2cBA4 | 
[V:4] z8 | 
[V:1] d8 | 
[V:2] z4g4 | 
[V:3] G8 | 
[V:4] z8 | 
[V:1] c4B2GA | 
[V:2] a4g2g2- | 
[V:3] z8 | 
[V:4] z8 | 
[V:1] BGc4B2 | 
[V:2] g2fed4 | 
[V:3] z8 | 
[V:4] z4G,4 | 
[V:1] c4B2G2- | 
[V:2] c4z4 | 
[V:3] z4z2GA | 
[V:4] A,4G,2G,2- | 
[V:1] G2A4GF | 
[V:2] z8 | 
[V:3] BGc4B2 | 
[V:4] G,2F,E,D,4 | 
[V:1] E8 | 
[V:2] z2g3f/g/a2 | 
[V:3] c8- | 
[V:4] C,8- | 
[V:1] z2G3F/G/A2 | 
[V:2] g2e3d/e/f2 | 
[V:3] c8 | 
[V:4] C,8 | 
[V:1] G2E3D/E/F2 | 
[V:2] e2c3BA2 | 
[V:3] z4c4- | 
[V:4] C,4A,,3B,, | 
[V:1] E2C4G2 | 
[V:2] G8 | 
[V:3] c4c4 | 
[V:4] C,8- | 
[V:1] A2c4BA | 
[V:2] z4g4 | 
[V:3] c8 | 
[V:4] C,8 | 
[V:1] B2G2d3c | 
[V:2] g2G2A2B2 | 
[V:3] d8- | 
[V:4] G,4F,2G,2- | 
[V:1] B2A3GG2- | 
[V:2] G2A2Bcd2- | 
[V:3] d8- | 
[V:4] G,2F,2G,4 | 
[V:1] G2^F2G4- | 
[V:2] dcBAB4 | 
[V:3] d8 | 
[V:4] D,4G,4 | 
[V:1] G8- | 
[V:2] c8 | 
[V:3] e8 | 
[V:4] C,8 | 
[V:1] G8- | 
[V:2] B8 | 
[V:3] e4d4- | 
[V:4] G,8 | 
[V:1] G4G4 | 
[V:2] B4G4 | 
[V:3] d4B4 | 
[V:4] z4G,4- | 
[V:1] G4F4- | 
[V:2] B4A4 | 
[V:3] d8- | 
[V:4] G,4D,4- | 
[V:1] F2EDF3G | 
[V:2] F3GA4- | 
[V:3] d8 | 
[V:4] D,4D,3E, | 
[V:1] A2A4GF | 
[V:2] A8- | 
[V:3] d4c4- | 
[V:4] F,2F,4E,D, | 
[V:1] E3FG4- | 
[V:2] A4G4- | 
[V:3] c4c4 | 
[V:4] C,3D,E,4- | 
[V:1] G4G4 | 
[V:2] G4d4- | 
[V:3] B8 | 
[V:4] E,4G,4 | 
[V:1] F2A3Bc2- | 
[V:2] d4c3d | 
[V:3] A8- | 
[V:4] D,4F,3E, | 
[V:1] cBAG^F3E | 
[V:2] e4d4 | 
[V:3] A8 | 
[V:4] C,4D,4 | 
[V:1] G8 | 
[V:2] B2c2d4 | 
[V:3] G8- | 
[V:4] G,,8- | 
[V:1] [M:3/1]z12 | 
[V:2] [M:3/1]d8d4 | 
[V:3] [M:3/1]G12 | 
[V:4] [M:3/1]G,,12 | 
[V:1] [M:3/1]z12 | 
[V:2] f6e2d4 | 
[V:3] z12 | 
[V:4] [M:3/1]D,8D,4 | 
[V:1] A8A4 | 
[V:2] c4d4f4 | 
[V:3] z12 | 
[V:4] F,6E,2D,4 | 
[V:1] c6B2A4 | 
[V:2] e8z4 | 
[V:3] [M:3/1]A8A4 | 
[V:4] C,4A,,2B,,2C,2D,2 | 
[V:1] G4A6G2 | 
[V:2] e8e4 | 
[V:3] c6B2A4 | 
[V:4] E,4A,,8 | 
[V:1] E4G6F2 | 
[V:2] c4e6d2 | 
[V:3] G12- | 
[V:4] C,6B,,2G,,4- | 
[V:1] D12- | 
[V:2] B8B4 | 
[V:3] G4G8 | 
[V:4] G,,4G,,6A,,2 | 
[V:1] D4G6A2 | 
[V:2] d8d4 | 
[V:3] G6A2B4 | 
[V:4] B,,4G,,8 | 
[V:1] B4G6A2 | 
[V:2] d6c2B2A2 | 
[V:3] G6A2B2c2 | 
[V:4] G,,8z4 | 
[V:1] B2c2d6c2 | 
[V:2] G6A2B2c2 | 
[V:3] d6c2B2A2 | 
[V:4] G,,8G,,4 | 
[V:1] B2A2G6F2 | 
[V:2] d8z4 | 
[V:3] G12 | 
[V:4] G,,6A,,2B,,2C,2 | 
[V:1] F4A4G4 | 
[V:2] d4c2A2B2c2 | 
[V:3] z12 | 
[V:4] D,4F,4E,4 | 
[V:1] F4A4B4 | 
[V:2] d12 | 
[V:3] z4A4G4 | 
[V:4] D,4F,4G,4 | 
[V:1] c4A6G2 | 
[V:2] z4z4d4 | 
[V:3] F4A4B4 | 
[V:4] A,4F,4G,4 | 
[V:1] G8^F4 | 
[V:2] e4d8 | 
[V:3] c4A8 | 
[V:4] C,4D,8 | 
[V:1] G4B4A2G2 | 
[V:2] B4d8 | 
[V:3] G6E2F4 | 
[V:4] G,,8D,4 | 
[V:1] G8^F4 | 
[V:2] c4d8 | 
[V:3] G4A8 | 
[V:4] E,4D,8 | 
[V:1] [M:2/1]G8- | 
[V:2] [M:3/3](3:2:4B4e4d2c2 | 
[V:3] [M:2/1](3:2:1G8/1023- | 
[V:4] [M:2/1](3G,,4C,4B,,4 | 
[V:1] G8 | 
[V:2] (3:2:2c8B4 | 
[V:3] (3:2:1G12- | 
[V:4] (3:2:2C,4G,,8 | 
[V:1] G8 | 
[V:2] [M:2/1]c8- | 
[V:3] [M:2/1]G8- | 
[V:4] [M:2/1]C,8- | 
[V:1] E4E4 | 
[V:2] c8 | 
[V:3] G8- | 
[V:4] C,8 | 
[V:1] D8 ||  
[V:2] B8 ||  
[V:3] G8 ||  
[V:4] G,,8 ||  
[V:1]  [K:C] [K:clef=treble][M:3/1]G8G4 | 
[V:2]  [K:C] [K:clef=treble-8][M:3/1]e8e2e2- | 
[V:3]  [K:C] [K:clef=treble-8][M:2/1]B12 | 
[V:4]  [K:C] [K:clef=bass][M:3/1]E,8E,4- | 
[V:1] G2A4A2G4 | 
[V:2] edcBA4e4- | 
[V:3] c12 | 
[V:4] E,2F,4E,2C,4 | 
[V:1] G4d4c4 | 
[V:2] e4d4e2f2 | 
[V:3] B8A4 | 
[V:4] E,3F,G,2G,4F,2 | 
[V:1] B12 | 
[V:2] d2e2d2B4e2- | 
[V:3] G4z4G4 | 
[V:4] G,8E,4 | 
[V:1] c12 | 
[V:2] edcBABcde4- | 
[V:3] G2A4A2G4- | 
[V:4] E,2F,4F,2E,2C,2 | 
[V:1] B8A4 | 
[V:2] e2dcB4z2f2 | 
[V:3] G4d4c4 | 
[V:4] E,3F,G,2G,4F,2 | 
[V:1] G2A3GG4^F2 | 
[V:2] e2f2e2dcd4- | 
[V:3] B2c3BB2A4 | 
[V:4] G,2F,2G,4D,4 | 
[V:1] G12 | 
[V:2] d4d4z2G2- | 
[V:3] G8z4 | 
[V:4] z2G,,3A,,B,,2C,4 | 
[V:1] z12 | 
[V:2] GAB2c4d2e2 | 
[V:3] G12- | 
[V:4] B,,2E,3D,C,2B,,2C,2- | 
[V:1] z12 | 
[V:2] c2dcBAG4^F2 | 
[V:3] G8A4 | 
[V:4] C,B,,G,,2B,,2C,2A,,4 | 
[V:1] G8A4 | 
[V:2] G8F4 | 
[V:3] B6AGd4 | 
[V:4] G,,8z4 | 
[V:1] B6AGd4 | 
[V:2] G4z4d4 | 
[V:3] d4d2c2B4 | 
[V:4] G,12 | 
[V:1] d2c3BA2G2F2 | 
[V:2] f8d4 | 
[V:3] A8z4 | 
[V:4] F,8G,2D,2 | 
[V:1] G2F2G2A2B2A2- | 
[V:2] z2A2B2A2G2A2- | 
[V:3] d12 | 
[V:4] G,2D,2G,2F,2G,2D,2 | 
[V:1] AGG4^F2G4 | 
[V:2] A2B2c3de2d2- | 
[V:3] c8B4- | 
[V:4] F,2G,2A,4G,4- | 
[V:1] z12 | 
[V:2] d2e2fedcd4 | 
[V:3] B4A8 | 
[V:4] G,4F,8 | 
[V:1] G8A2B2 | 
[V:2] e8z2e2 | 
[V:3] G8z4 | 
[V:4] E,4z2E,2F,2G,2- | 
[V:1] G4c4B2c2- | 
[V:2] d2e2c2g4f2 | 
[V:3] z4z2d4c2 | 
[V:4] G,2E,2F,2G,4A,2 | 
[V:1] c2B2A4G2A2 | 
[V:2] g4e4e2d2 | 
[V:3] d4c2B4A2 | 
[V:4] G,4A,2E,4F,2 | 
[V:1] G4F2G2A4 | 
[V:2] e4z2d2c3B | 
[V:3] B2A4G4F2 | 
[V:4] E,2C,2D,2B,,2A,,4 | 
[V:1] B2G4d4c2 | 
[V:2] B4G4z4 | 
[V:3] G4c4B2c2- | 
[V:4] G,,4z2G,4A,2 | 
[V:1] d4c2B4A2 | 
[V:2] g4e3fg2f2 | 
[V:3] c2B2A4G2A2 | 
[V:4] G,4A,2E,4F,2 | 
[V:1] B2A4G4^F2 | 
[V:2] g2e2d8 | 
[V:3] G4F2G2A4 | 
[V:4] E,2C,2D,2G,,2D,4 | 
[V:1] G12 |]  
[V:2] d12 |]  
[V:3] G12 |]  
[V:4] G,,12 |]  



